_includes/icons/color-neutral.svg

<svg fill="#666" height="50" viewBox="0 0 48 48" width="50" xmlns="http://www.w3.org/2000/svg"><path d="m44 24c0 11-9 20-20 20s-20-9-20-20 9-20 20-20 20 9 20 20z" fill="#ffca28"/><path d="m21 23c0 2.2-1.8 4-4 4s-4-1.8-4-4 1.8-4 4-4 4 1.8 4 4z" fill="#6d4c41"/><path d="m17 21.5c0 .8-.7 1.5-1.5 1.5s-1.5-.7-1.5-1.5.7-1.5 1.5-1.5 1.5.7 1.5 1.5z" fill="#fff"/><path d="m35 23c0 2.2-1.8 4-4 4s-4-1.8-4-4 1.8-4 4-4 4 1.8 4 4z" fill="#6d4c41"/><path d="m31 21.5c0 .8-.7 1.5-1.5 1.5s-1.5-.7-1.5-1.5.7-1.5 1.5-1.5 1.5.7 1.5 1.5z" fill="#fff"/><path d="m19 33h10v2h-10z" fill="#b76c09"/></svg>

<svg xmlns="http://www.w3.org/2000/svg" viewBox="0 0 48 48" width="50" height="50" fill="#666"><path d="M44,24c0,11-9,20-20,20S4,35,4,24S13,4,24,4S44,13,44,24z" fill="#ffca28"/><path d="M21,23c0,2.2-1.8,4-4,4s-4-1.8-4-4s1.8-4,4-4S21,20.8,21,23z" fill="#6d4c41"/><path d="M17,21.5c0,0.8-0.7,1.5-1.5,1.5S14,22.3,14,21.5s0.7-1.5,1.5-1.5C16.3,20,17,20.7,17,21.5z" fill="#fff"/><path d="M35,23c0,2.2-1.8,4-4,4s-4-1.8-4-4s1.8-4,4-4S35,20.8,35,23z" fill="#6d4c41"/><path d="M31,21.5c0,0.8-0.7,1.5-1.5,1.5S28,22.3,28,21.5s0.7-1.5,1.5-1.5S31,20.7,31,21.5z" fill="#fff"/><path fill="#b76c09" d="M19 33H29V35H19z"/></svg>
